lib/svgs/mail.svg

<svg xmlns="http://www.w3.org/2000/svg" viewBox="0 0 20 20">
    <path fill="#000" fill-rule="evenodd" d="M17.334,7.7 L16.433,7.053 L16.433,3.434 C16.433,2.644 15.79,2 15,2 L5,2 C4.21,2 3.567,2.644 3.567,3.434 L3.567,7.053 L2.666,7.7 C2.248,8.001 2,8.484 2,8.999 L2,16.43 C2,17.314 2.716,18.03 3.6,18.03 L16.4,18.03 C17.284,18.03 18,17.314 18,16.43 L18,8.999 C18,8.484 17.752,8.001 17.334,7.7 L17.334,7.7 Z M16.8,16.419 L10.976,12.92 L16.8,9.58 L16.8,16.419 L16.8,16.419 Z M3.6,16.83 C3.379,16.83 3.2,16.651 3.2,16.43 L3.2,9.648 L15.154,16.83 L3.6,16.83 L3.6,16.83 Z M5,3.201 L15,3.201 C15.127,3.201 15.233,3.308 15.233,3.434 L15.233,9.095 L9.797,12.212 L4.767,9.189 L4.767,3.434 C4.767,3.308 4.874,3.201 5,3.201 L5,3.201 Z M6.6666,8.3964 L9.9996,8.3964 C10.3316,8.3964 10.6006,8.1274 10.6006,7.7964 C10.6006,7.4644 10.3316,7.1964 9.9996,7.1964 L6.6666,7.1964 C6.3346,7.1964 6.0666,7.4644 6.0666,7.7964 C6.0666,8.1274 6.3346,8.3964 6.6666,8.3964 L6.6666,8.3964 Z M6.6666,5.8803 L13.3336,5.8803 C13.6646,5.8803 13.9336,5.6113 13.9336,5.2803 C13.9336,4.9483 13.6646,4.6803 13.3336,4.6803 L6.6666,4.6803 C6.3346,4.6803 6.0666,4.9483 6.0666,5.2803 C6.0666,5.6113 6.3346,5.8803 6.6666,5.8803 L6.6666,5.8803 Z"/>
</svg>

<svg xmlns="http://www.w3.org/2000/svg" viewBox="0 0 20 20">
    <path fill="#000" fill-rule="evenodd" d="M17.334 7.7l-.901-.647V3.434C16.433 2.644 15.79 2 15 2H5c-.79 0-1.433.644-1.433 1.434v3.619l-.901.647A1.6 1.6 0 0 0 2 8.999v7.431a1.6 1.6 0 0 0 1.6 1.6h12.8a1.6 1.6 0 0 0 1.6-1.6V8.999a1.6 1.6 0 0 0-.666-1.299m-.534 8.719l-5.824-3.499L16.8 9.58v6.839m-13.2.411a.4.4 0 0 1-.4-.4V9.648l11.954 7.182H3.6M5 3.201h10c.127 0 .233.107.233.233v5.661l-5.436 3.117-5.03-3.023V3.434c0-.126.107-.233.233-.233m1.667 5.195H10a.6.6 0 1 0 0-1.2H6.667a.6.6 0 1 0 0 1.2m0-2.516h6.667a.6.6 0 0 0 0-1.2H6.667a.6.6 0 1 0 0 1.2"/>
</svg>
